X:1
T:Title
%%score { ( 1 3 ) | ( 2 4 ) }
L:1/8
M:4/4
K:F
V:1 treble nm="Grand Piano"
V:3 treble 
V:2 bass 
V:4 bass 
V:1
 z4 z2[Q:1/4=76] CF | A3 A B2 A2 | [DA]2 [DG]4 F2 | F3 E D2 C2 |[M:3/4] c6 |[M:1/4] z F | %6
[M:4/4] A3 A B2 A2 | [DA]2 [DG]4 [G,DF]2 | [A,CF]2 [G,CE]2 [CFA]3 [B,CG] |[M:3/4] [F,A,CF]6 | %10
[M:1/4] [A,C][A,CF] |[M:4/4] [CFA]>[CFA] [CFA]4 F-[DF] | CC C4 CF | A>A A4 [CFc]2 | %14
[M:3/4] G-[FG-] [EG]4 |[M:1/4] AB |[M:4/4] c>d c4 A2 | [DG]2 [DF]4 [CE]D | CB [CFA]4 [B,CG]2 | %19
[M:3/4] [A,CF]6 |] %20
V:2
 z4 z2 [F,A,][F,A,C] | [F,CF]3 [F,CF] [F,DF]2 [F,CF]2 | [B,,B,]2 [B,,B,]4 [D,G,=B,]2 | %3
 [C,G,B,]3 [C,G,B,] [D,G,B,]2 [E,B,]2 |[M:3/4] [F,A,F]6 |[M:1/4] [F,A,]2 | %6
[M:4/4] [F,CF]3 [F,CF] [F,DF]2 [F,CF]2 | [B,,B,]2 [B,,B,]4 =B,,2 | C,2 C,2 C,3 C, |[M:3/4] F,,6 | %10
[M:1/4] F,F, |[M:4/4] F,>F, F,4 z B, | [F,A,][G,B,] [F,A,]4 [F,A,][F,A,C] | %13
 [F,CF]>[F,CF] [F,CF]4 A,,2 |[M:3/4] C,[D,=B,] [C,C]4 |[M:1/4] [F,CF][F,G,F] | %16
[M:4/4] [F,A,F]>[F,B,F] [F,A,F]4 [F,C_E]2 | [B,,B,]2 [B,,B,]4 [B,,B,][B,,F,B,] | %18
 [C,F,A,][C,G,C] C,4 C,2 |[M:3/4] F,,6 |] %20
V:3
 x8 | x8 | x8 | x8 |[M:3/4] x6 |[M:1/4] C2 |[M:4/4] x8 | x8 | x8 |[M:3/4] x6 |[M:1/4] x2 | %11
[M:4/4] z4 z2 .D2 | x8 | x8 |[M:3/4] .[CE]2 z2 z2 |[M:1/4] x2 |[M:4/4] x8 | x8 | x8 |[M:3/4] x6 |] %20
V:4
 x8 | x8 | x8 | x8 |[M:3/4] x6 |[M:1/4] x2 |[M:4/4] x8 | x8 | x8 |[M:3/4] x6 |[M:1/4] x2 | %11
[M:4/4] z4 z2 B,,2 | x8 | x8 |[M:3/4] x6 |[M:1/4] x2 |[M:4/4] x8 | x8 | x8 |[M:3/4] x6 |] %20

